X:1
T:Title
%%score { 1 | ( 2 3 ) }
L:1/8
M:4/4
K:Ab
V:1 treble nm="Grand Piano"
V:2 bass 
V:3 bass 
V:1
 z4 z2[Q:1/4=100] [CE]2 | [Ec]3 [DB] [CA]2 .[A,EA]2 | [A,FA]2 [A,DF]2 [A,FA]3 [A,DF] | %3
 [A,E]3 [G,DE] [CA]2 [Ec]2 |[M:3/4] B6 |[M:1/4] d2 |[M:4/4] c3 B [A,CA]2 .[A,EA]2 | %7
 [A,FA]2 [A,DF]2 [A,FA]3 [A,DF] | .[A,CE]2 [DG][CEA] [EAc]2 [DGB]2 |[M:3/4] [A,CEA]6 |[M:1/4] E2 | %11
[M:4/4] d3 c B2 d2 | c3 B A2 A2 | A3 A [=DB]2 [DF]2 |[M:3/4] A3 G G2 |[M:1/4] d2 | %16
[M:4/4] c3 B [CA]2 [Ec]2 | %17
[M:19/16] [_Ge]-<[Ge][Ge]-<[Ge][Fd]/-[Fd]/-[Fd]/-[Fd]/-[Fd]/-[Fd]-<[Fd][Fd] |[M:4/4] c3 A AGAB | %19
[M:3/4] [CEA]6 |] %20
V:2
 z4 z2 [A,,A,]2 | [A,,A,]3 [A,,E,] [A,,E,]2 z =E | D,2 D,2 D,3 D, | C,3 B,, [A,,A,]2 [A,,A,]2 | %4
[M:3/4] [E,G,E]6 |[M:1/4] [G,B,E]2 |[M:4/4] [A,E]3 [E,G,D] A,,2 z =E | D,2 D,2 D,3 D, | %8
 z[K:treble] FB,[K:bass]E, E,2 E,2 |[M:3/4] A,,6 |[M:1/4] E,2 | %11
[M:4/4] [E,B,E]3 [E,A,E] [E,G,E]2 [G,B,E]2 | [A,E]3 [E,G,D] [A,C]2 [A,C]2 | %13
 [F,A,C]3 [F,A,C] [B,,A,]2 [B,,B,]2 |[M:3/4] [E,B,D]3 [E,B,D] [E,B,D]2 |[M:1/4] [G,B,E]2 | %16
[M:4/4] [A,E]3 [E,G,D] [A,,A,]2 [A,,A,]2 | %17
[M:19/16] [C,A,]-<[C,A,][C,A,]-<[C,A,][D,A,]/-[D,A,]/-[D,A,]/-[D,A,]/-[D,A,]/-[D,A,]-<[D,A,][D,A,] | %18
[M:4/4] [E,A,E]3 [E,CE] CB,CD |[M:3/4] A,,6 |] %20
V:3
 x8 | z4 z2 C,2 | x8 | x8 |[M:3/4] x6 |[M:1/4] x2 |[M:4/4] z4 z2 C,2 | x8 | %8
 E,4[K:treble][K:bass] z4 |[M:3/4] x6 |[M:1/4] x2 |[M:4/4] x8 | x8 | x8 |[M:3/4] x6 |[M:1/4] x2 | %16
[M:4/4] x8 |[M:19/16] x19/2 |[M:4/4] z4 [E,E]2 [E,E]2 |[M:3/4] x6 |] %20

